src/icons/svg/terminal-fill.svg

<?xml version="1.0" encoding="UTF-8"?>
<svg width="40px" height="30px" viewBox="0 0 40 30" version="1.1" xmlns="http://www.w3.org/2000/svg"
>
    <path d="M0,0 L0,30 L40,30 L40,0 L0,0 Z M9.485,22.56 L7.5,20.575 L13.5275,14.545 L7.5,8.5175 L9.485,6.5325 L17.5,14.545 L9.485,22.56 Z M32.31,23.0775 L20,23.0775 L20,20 L32.3075,20 L32.3075,23.075 L32.31,23.0775 Z"
          id="形状"></path>
</svg>

<svg width="40" height="30" xmlns="http://www.w3.org/2000/svg"><path d="M0 0v30h40V0H0zm9.485 22.56L7.5 20.575l6.027-6.03L7.5 8.518l1.985-1.986 8.015 8.013-8.015 8.015zm22.825.518H20V20h12.307v3.075l.003.003z"/></svg>
